img/icones/facebook-icon.svg

<svg width="40" height="40" viewBox="0 0 40 40" fill="none" xmlns="http://www.w3.org/2000/svg">
<g clip-path="url(#clip0_27_53)">
<rect width="40" height="40" rx="10" fill="black"/>
<path d="M20.5 32.3333H15.8333V19.8333H13.3333V14.8333H15.5V12.3333C15.5 8.46667 18.8333 7.38889 20.5 7.33333H24.6667V11.5H22.5C21.3 11.5 21 12.3889 21 12.8333V14.8333H24.8333L24.3333 19.8333H20.5V32.3333Z" fill="white"/>
</g>
<defs>
<clipPath id="clip0_27_53">
<rect width="40" height="40" fill="white"/>
</clipPath>
</defs>
</svg>

<svg width="40" height="40" fill="none" xmlns="http://www.w3.org/2000/svg"><g clip-path="url(#a)"><rect width="40" height="40" rx="10" fill="#000"/><path d="M20.5 32.333h-4.667v-12.5h-2.5v-5H15.5v-2.5c0-3.866 3.333-4.944 5-5h4.167V11.5H22.5c-1.2 0-1.5.889-1.5 1.333v2h3.833l-.5 5H20.5v12.5Z" fill="#fff"/></g><defs><clipPath id="a"><path fill="#fff" d="M0 0h40v40H0z"/></clipPath></defs></svg>
